svgs/sharp-regular/building-ngo.svg

<svg xmlns="http://www.w3.org/2000/svg" viewBox="0 0 384 512"><!--! Font Awesome Pro 6.4.0 by @fontawesome - https://fontawesome.com License - https://fontawesome.com/license (Commercial License) Copyright 2023 Fonticons, Inc. --><path d="M336 48H48 0V0H48 336h48V48H336zm0 192h48V464v48H336 48 0V464 240H48V464h96V352h96V464h96V240zM32 80H48h8 9.9l4.4 8.8L96 140.2V96 80h32V96v96 16H112h-8H94.1l-4.4-8.8L64 147.8V192v16H32V192 96 80zm136 0h48 16v32H216 184v64h16V160 144h32v16 32 16H216 168 152V192 96 80h16zm120 48v32c0 8.8 7.2 16 16 16s16-7.2 16-16V128c0-8.8-7.2-16-16-16s-16 7.2-16 16zm16-48c26.5 0 48 21.5 48 48v32c0 26.5-21.5 48-48 48s-48-21.5-48-48V128c0-26.5 21.5-48 48-48zM168 248v80H88V248h80zm128 80H216V248h80v80z"/></svg>

<svg xmlns="http://www.w3.org/2000/svg" viewBox="0 0 384 512"><!--! Font Awesome Pro 6.6.0 by @fontawesome - https://fontawesome.com License - https://fontawesome.com/license (Commercial License) Copyright 2024 Fonticons, Inc. --><path d="M336 48L48 48 0 48 0 0 48 0 336 0l48 0 0 48-48 0zm0 192l48 0 0 224 0 48-48 0L48 512 0 512l0-48L0 240l48 0 0 224 96 0 0-112 96 0 0 112 96 0 0-224zM32 80l16 0 8 0 9.9 0 4.4 8.8L96 140.2 96 96l0-16 32 0 0 16 0 96 0 16-16 0-8 0-9.9 0-4.4-8.8L64 147.8 64 192l0 16-32 0 0-16 0-96 0-16zm136 0l48 0 16 0 0 32-16 0-32 0 0 64 16 0 0-16 0-16 32 0 0 16 0 32 0 16-16 0-48 0-16 0 0-16 0-96 0-16 16 0zm120 48l0 32c0 8.8 7.2 16 16 16s16-7.2 16-16l0-32c0-8.8-7.2-16-16-16s-16 7.2-16 16zm16-48c26.5 0 48 21.5 48 48l0 32c0 26.5-21.5 48-48 48s-48-21.5-48-48l0-32c0-26.5 21.5-48 48-48zM168 248l0 80-80 0 0-80 80 0zm128 80l-80 0 0-80 80 0 0 80z"/></svg>
